imgs/hander.svg

<svg height="100" viewBox="0 0 84 100" width="84" xmlns="http://www.w3.org/2000/svg"><path d="m614.867818 3325.84241c-.934578-3.20358-3.257374-6.31161-5.457326-10.64889-1.877988-3.70218.546777-33.68174.809326-36.11774.262548-2.43681 4.855951-3.56489 7.69421.51867 2.838259 4.08436 2.692131 21.6358 4.699386 21.53464 1.736677-.08752 1.34727-26.90284 1.256542-39.6441-.019229-2.68109 2.270272-3.94498 4.548277-3.93019 1.907228.01238 3.806397.92106 4.335834 2.64475.857499 2.79169 1.975942 17.24312 3.623497 29.44001.146931 1.08873 1.752735 1.06786 1.954264-.01205.129267-.69691.264957-1.40267.400648-2.0755.665606-3.30555 7.209257-4.82624 9.01659-.65035.127661.29627.252111 1.3818.370138 1.65237.651153 1.48056 2.775632 1.39464 3.305548-.13408.11642-.33401.244885-.68407.388604-1.04939 1.511865-3.85313 6.923425-2.86315 8.210477-.09475.79407 1.70617.494587 2.77804 2.049006 2.93863 1.509456.15576 1.626679-1.20355 2.192725-2.1566 1.78164-3.00044 7.716692-2.31717 8.412005 4.80938.510646 5.23733 2.323668 38.10712-6.54775 53.31981-5.914279 10.14179-12.627253 19.10196-20.138922 26.88052l-28.490392-26.88052c-1.461122-19.21325-1.698109-17.14104-2.632687-20.34462z" fill="none" stroke="#000" stroke-width="4" transform="matrix(.69465837 .7193398 -.7193398 .69465837 1980.541183 -2710.751831)"/></svg>

<?xml version="1.0" encoding="UTF-8"?>
<svg width="84px" height="100px" viewBox="0 0 84 100" version="1.1" xmlns="http://www.w3.org/2000/svg" xmlns:xlink="http://www.w3.org/1999/xlink">
    <!-- Generator: Sketch 51.1 (57501) - http://www.bohemiancoding.com/sketch -->
    <title>handoutline</title>
    <desc>Created with Sketch.</desc>
    <defs></defs>
    <g id="Page-1" stroke="none" stroke-width="1" fill="none" fill-rule="evenodd">
        <g id="Alt-Lab-updated" transform="translate(-600.000000, -3262.000000)" stroke="#000000" stroke-width="4">
            <path d="M614.867818,3325.84241 C613.93324,3322.63883 611.610444,3319.5308 609.410492,3315.19352 C607.532504,3311.49134 609.957269,3281.51178 610.219818,3279.07578 C610.482366,3276.63897 615.075769,3275.51089 617.914028,3279.59445 C620.752287,3283.67881 620.606159,3301.23025 622.613414,3301.12909 C624.350091,3301.04157 623.960684,3274.22625 623.869956,3261.48499 C623.850727,3258.8039 626.140228,3257.54001 628.418233,3257.5548 C630.325461,3257.56718 632.22463,3258.47586 632.754067,3260.19955 C633.611566,3262.99124 634.730009,3277.44267 636.377564,3289.63956 C636.524495,3290.72829 638.130299,3290.70742 638.331828,3289.62751 C638.461095,3288.9306 638.596785,3288.22484 638.732476,3287.55201 C639.398082,3284.24646 645.941733,3282.72577 647.749066,3286.90166 C647.876727,3287.19793 648.001177,3288.28346 648.119204,3288.55403 C648.770357,3290.03459 650.894836,3289.94867 651.424752,3288.41995 C651.541172,3288.08594 651.669637,3287.73588 651.813356,3287.37056 C653.325221,3283.51743 658.736781,3284.50741 660.023833,3287.27581 C660.817903,3288.98198 660.51842,3290.05385 662.072839,3290.21444 C663.582295,3290.3702 663.699518,3289.01089 664.265564,3288.05784 C666.047204,3285.0574 671.982256,3285.74067 672.677569,3292.86722 C673.188215,3298.10455 675.001237,3330.97434 666.129819,3346.18703 C660.21554,3356.32882 653.502566,3365.28899 645.990897,3373.06755 L617.500505,3346.18703 C616.039383,3326.97378 615.802396,3329.04599 614.867818,3325.84241 Z" id="handoutline" transform="translate(640.940940, 3315.311110) rotate(-314.000000) translate(-640.940940, -3315.311110) "></path>
        </g>
    </g>
</svg>
